; generated by PrusaSlicer 2.4.0+win64 on 2022-02-15 at 10:01:04 UTC

; 

; external perimeters extrusion width = 0.45mm
; perimeters extrusion width = 0.45mm
; infill extrusion width = 0.45mm
; solid infill extrusion width = 0.45mm
; top infill extrusion width = 0.40mm
; first layer extrusion width = 0.42mm

M73 P0 R83
M73 Q0 S84
M201 X1000 Y1000 Z200 E5000 ; sets maximum accelerations, mm/sec^2
M203 X200 Y200 Z12 E120 ; sets maximum feedrates, mm/sec
M204 P1250 R1250 T1250 ; sets acceleration (P, T) and retract acceleration (R), mm/sec^2
M205 X8.00 Y8.00 Z0.40 E4.50 ; sets the jerk limits, mm/sec
M205 S0 T0 ; sets the minimum extruding and travel feed rate, mm/sec
M107
;TYPE:Custom
M862.3 P "MK3S" ; printer model check
M862.1 P0.4 ; nozzle diameter check
M115 U3.10.0 ; tell printer latest fw version
G90 ; use absolute coordinates
M83 ; extruder relative mode
M104 S215 ; set extruder temp
M140 S60 ; set bed temp
M190 S60 ; wait for bed temp
M109 S215 ; wait for extruder temp
G28 W ; home all without mesh bed level
G80 ; mesh bed leveling
G1 Z0.2 F720
G1 Y-3 F1000 ; go outside print area
G92 E0
G1 X60 E9 F1000 ; intro line
G1 X100 E12.5 F1000 ; intro line
G92 E0
M221 S95

; Don't change E values below. Excessive value can damage the printer.

G21 ; set units to millimeters
G90 ; use absolute coordinates
M83 ; use relative distances for extrusion
M900 K0.05 ; Filament gcode LA 1.5
M900 K30 ; Filament gcode LA 1.0
M107
;LAYER_CHANGE
;Z:0.25
;HEIGHT:0.25
;BEFORE_LAYER_CHANGE
G92 E0.0
;0.25


M73 Q0 S83
G1 E-.8 F2100
G1 Z.4 F720
;AFTER_LAYER_CHANGE
;0.25
G1 X94.742 Y94.916 F10800
G1 Z.25 F720
G1 E.8 F2100
M204 S800
;TYPE:Skirt/Brim
;WIDTH:0.42
G1 F1200
G1 X95.837 Y93.824 E.05889
G1 X96.789 Y93.168 E.04405
G1 X97.783 Y92.675 E.04224
G1 X98.833 Y92.325 E.04214
G1 X99.935 Y92.121 E.04265
G1 X125.034 Y90.617 E.95743
G1 X127.751 Y90.789 E.10366
G1 X130.369 Y91.295 E.10153
G1 X132.904 Y92.125 E.1016
G1 X135.361 Y93.294 E.1036
G1 X137.605 Y94.735 E.10157
G1 X139.63 Y96.429 E.10052
G1 X141.503 Y98.452 E.10499
G1 X142.99 Y100.528 E.09722
G1 X143.817 Y102.052 E.06602
G1 X144.277 Y103.562 E.06009
G1 X144.412 Y105.252 E.06457
G1 X144.187 Y106.84 E.06108
G1 X143.907 Y107.724 E.03532
G1 X143.525 Y108.565 E.03516
G1 X141.556 Y111.747 E.14246
G1 X140.756 Y112.715 E.04781
G1 X139.687 Y113.756 E.05684
G1 X136.122 Y116.262 E.16592
G1 X134.61 Y117.105 E.06592
G1 X132.928 Y117.866 E.07028
G1 X131.128 Y118.493 E.0726
G1 X129.374 Y118.937 E.06889
G1 X127.51 Y119.24 E.0719
G1 X125.635 Y119.376 E.07158
G1 X123.752 Y119.343 E.07171
G1 X99.75 Y117.856 E.91569
G1 X98.289 Y117.514 E.05714
G1 X96.898 Y116.894 E.05801
G1 X95.712 Y116.074 E.05486
G1 X94.633 Y114.974 E.0587
G1 X94.002 Y114.071 E.04195
G1 X93.502 Y113.09 E.04193
G1 X93.124 Y111.989 E.04431
G1 X92.906 Y110.837 E.04467
G1 X92.729 Y105.044 E.22067
G1 X92.865 Y99.62 E.20658
G1 X93.125 Y98.01 E.06212
G1 X93.719 Y96.442 E.06383
G1 X94.636 Y95.022 E.06438
G1 X94.699 Y94.959 E.0034
M204 S1000
;WIPE_START
G1 F8640
G1 X95.837 Y93.824 E-.37096
G1 X96.789 Y93.168 E-.26711
G1 X97.262 Y92.933 E-.12193
;WIPE_END
G1 E-.04 F2100
G1 Z.65 F720
G1 X96.92 Y96.788 F10800
G1 Z.25 F720
G1 E.8 F2100
M204 S800
G1 F1200
G1 X97.367 Y96.314 E.02483
G1 X97.864 Y95.908 E.02441
G1 X98.443 Y95.549 E.02595
G1 X99.362 Y95.174 E.0378
G1 X100.471 Y94.967 E.04295
G1 X123.977 Y93.534 E.8967
G1 X124.969 Y93.503 E.0378
G1 X125.968 Y93.526 E.03808
G1 X127.038 Y93.61 E.04085
G1 X127.937 Y93.731 E.03457
G1 X129.091 Y93.955 E.04476
G1 X130.081 Y94.207 E.03887
G1 X131.061 Y94.517 E.03913
G1 X132.054 Y94.895 E.04048
G1 X133.018 Y95.327 E.04023
G1 X133.967 Y95.821 E.04071
G1 X134.876 Y96.363 E.04032
G1 X135.757 Y96.96 E.04051
G1 X136.599 Y97.604 E.04039
G1 X137.414 Y98.308 E.04099
G1 X138.177 Y99.049 E.04049
G1 X138.935 Y99.88 E.04284
G1 X139.7 Y100.832 E.04648
G1 X140.36 Y101.773 E.04379
G1 X140.901 Y102.653 E.03933
G1 X141.178 Y103.219 E.02398
G1 X141.433 Y104.058 E.03341
G1 X141.529 Y104.932 E.03345
G1 X141.458 Y105.812 E.03362
G1 X141.245 Y106.603 E.03119
G1 X140.896 Y107.358 E.03167
G1 X140.342 Y108.255 E.04015
G1 X139.669 Y109.244 E.04554
G1 X139.089 Y110.233 E.04367
G1 X137.783 Y111.581 E.07146
G1 X136.996 Y112.089 E.03566
G1 X136.085 Y112.799 E.044
G1 X135.281 Y113.373 E.03761
G1 X134.388 Y113.937 E.0402
G1 X133.467 Y114.448 E.0401
G1 X132.472 Y114.926 E.04205
G1 X131.349 Y115.38 E.04613
G1 X130.199 Y115.759 E.04611
G1 X129.176 Y116.026 E.04025
G1 X128.02 Y116.255 E.04489
G1 X126.845 Y116.41 E.04513
G1 X125.634 Y116.488 E.04618
G1 X124.546 Y116.49 E.04144
G1 X100.332 Y115.017 E.9237
G1 X99.653 Y114.904 E.02625
G1 X99.017 Y114.71 E.02529
G1 X98.04 Y114.213 E.04175
G1 X97.483 Y113.79 E.02663
G1 X96.994 Y113.301 E.02632
G1 X96.406 Y112.464 E.03894
G1 X95.939 Y111.334 E.04656
G1 X95.74 Y110.121 E.04681
G1 X95.733 Y107.254 E.10917
G1 X95.653 Y106.097 E.04417
G1 X95.616 Y105.07 E.03913
G1 X95.629 Y104.286 E.02986
G1 X95.728 Y102.782 E.05739
G1 X95.756 Y99.662 E.11882
G1 X95.834 Y99.108 E.0213
G1 X95.965 Y98.562 E.02137
G1 X96.489 Y97.391 E.04885
G1 X96.885 Y96.837 E.02594
M204 S1000
G1 X97.181 Y97.05 F10800
M204 S800
G1 F1200
G1 X97.609 Y96.589 E.02395
G1 X98.069 Y96.212 E.02262
G1 X98.596 Y95.882 E.0237
G1 X99.483 Y95.521 E.03646
G1 X100.504 Y95.332 E.03954
G1 X123.996 Y93.9 E.89618
G1 X124.975 Y93.869 E.0373
G1 X125.955 Y93.892 E.0373
G1 X127.004 Y93.975 E.04006
G1 X127.883 Y94.094 E.0338
G1 X129.016 Y94.313 E.04395
G1 X129.985 Y94.561 E.03806
G1 X130.945 Y94.865 E.03835
G1 X131.919 Y95.235 E.03968
G1 X132.864 Y95.659 E.03942
G1 X133.784 Y96.138 E.0395
G1 X134.675 Y96.67 E.03953
G1 X135.539 Y97.254 E.0397
G1 X136.364 Y97.885 E.03957
G1 X137.163 Y98.575 E.04017
G1 X137.91 Y99.3 E.03966
G1 X138.654 Y100.114 E.04197
G1 X139.403 Y101.047 E.04558
G1 X140.051 Y101.97 E.04293
G1 X140.584 Y102.837 E.03877
G1 X140.842 Y103.366 E.02238
G1 X141.077 Y104.148 E.03109
G1 X141.162 Y104.921 E.02962
G1 X141.099 Y105.735 E.03107
G1 X140.905 Y106.464 E.02876
G1 X140.578 Y107.175 E.02979
G1 X140.037 Y108.052 E.03925
G1 X139.359 Y109.049 E.0459
G1 X138.81 Y109.994 E.04164
G1 X137.535 Y111.311 E.06976
G1 X136.785 Y111.789 E.03388
G1 X135.863 Y112.508 E.04453
G1 X135.081 Y113.066 E.03659
G1 X134.206 Y113.619 E.0394
G1 X133.294 Y114.125 E.03969
G1 X132.319 Y114.593 E.04122
G1 X131.228 Y115.034 E.04478
G1 X130.1 Y115.406 E.04523
G1 X129.099 Y115.668 E.0394
G1 X127.954 Y115.894 E.04445
G1 X126.803 Y116.046 E.04422
G1 X125.617 Y116.122 E.04526
G1 X124.551 Y116.124 E.04056
G1 X100.382 Y114.654 E.92199
G1 X99.748 Y114.55 E.02449
G1 X99.14 Y114.364 E.02422
G1 X98.248 Y113.911 E.03809
G1 X97.733 Y113.521 E.02458
G1 X97.264 Y113.054 E.02521
G1 X96.718 Y112.271 E.03634
G1 X96.296 Y111.254 E.04193
G1 X96.106 Y110.106 E.04432
G1 X96.1 Y107.241 E.10906
G1 X96.019 Y106.075 E.04452
G1 X95.982 Y105.071 E.03824
G1 X95.995 Y104.306 E.02916
G1 X96.095 Y102.796 E.05762
G1 X96.12 Y99.701 E.11785
G1 X96.195 Y99.168 E.02049
G1 X96.317 Y98.666 E.01968
G1 X96.815 Y97.559 E.04622
G1 X97.146 Y97.098 E.02158
M204 S1000
G1 X97.442 Y97.312 F10800
M204 S800
G1 F1200
G1 X97.852 Y96.864 E.02314
G1 X98.275 Y96.516 E.02086
G1 X98.75 Y96.215 E.02141
G1 X99.604 Y95.867 E.0351
G1 X100.537 Y95.697 E.03613
G1 X124.016 Y94.266 E.89567
G1 X124.982 Y94.235 E.03681
G1 X125.941 Y94.258 E.03653
G1 X126.969 Y94.34 E.03928
G1 X127.829 Y94.456 E.03302
G1 X128.941 Y94.672 E.04315
G1 X129.889 Y94.915 E.03724
G1 X130.83 Y95.212 E.03758
G1 X131.774 Y95.572 E.03848
G1 X132.699 Y95.986 E.03861
G1 X133.601 Y96.455 E.03869
G1 X134.474 Y96.976 E.03873
G1 X135.321 Y97.548 E.03889
G1 X136.129 Y98.166 E.03874
G1 X136.911 Y98.841 E.03936
G1 X137.643 Y99.552 E.03883
G1 X138.372 Y100.348 E.0411
G1 X139.107 Y101.263 E.04468
G1 X139.742 Y102.167 E.04207
G1 X140.268 Y103.021 E.03821
G1 X140.506 Y103.512 E.02079
G1 X140.715 Y104.206 E.02758
G1 X140.796 Y104.912 E.02705
G1 X140.741 Y105.658 E.02851
G1 X140.565 Y106.327 E.0263
G1 X140.26 Y106.992 E.02788
G1 X139.731 Y107.85 E.03835
G1 X139.048 Y108.855 E.04629
G1 X138.53 Y109.756 E.03958
G1 X137.288 Y111.04 E.06801
G1 X136.575 Y111.489 E.03208
G1 X135.641 Y112.217 E.0451
G1 X134.88 Y112.759 E.03556
G1 X134.015 Y113.307 E.039
G1 X133.122 Y113.802 E.03888
G1 X132.165 Y114.26 E.04038
G1 X131.097 Y114.693 E.04389
G1 X130.002 Y115.053 E.04389
G1 X129.023 Y115.31 E.03854
G1 X127.889 Y115.534 E.04401
G1 X126.761 Y115.682 E.04331
G1 X125.599 Y115.756 E.04435
G1 X124.557 Y115.757 E.03969
G1 X100.432 Y114.291 E.92031
G1 X99.843 Y114.196 E.02272
G1 X99.262 Y114.018 E.02313
G1 X98.456 Y113.609 E.03442
G1 X97.964 Y113.237 E.02346
G1 X97.536 Y112.807 E.02314
G1 X97.03 Y112.079 E.03373
G1 X96.643 Y111.135 E.03887
G1 X96.472 Y110.09 E.0403
G1 X96.466 Y107.228 E.10898
G1 X96.385 Y106.053 E.04488
G1 X96.349 Y105.072 E.03734
G1 X96.361 Y104.325 E.02846
G1 X96.461 Y102.809 E.05786
G1 X96.485 Y99.739 E.1169
G1 X96.553 Y99.245 E.01898
G1 X96.669 Y98.769 E.01866
G1 X97.141 Y97.727 E.04355
G1 X97.406 Y97.361 E.01722
M204 S1000
G1 X97.703 Y97.574 F10800
M204 S800
G1 F1200
G1 X98.111 Y97.123 E.02317
G1 X98.497 Y96.806 E.01902
G1 X98.931 Y96.534 E.01949
G1 X99.723 Y96.214 E.03253
G1 X100.57 Y96.062 E.03277
G1 X124.035 Y94.632 E.89517
G1 X124.978 Y94.602 E.03593
G1 X125.927 Y94.624 E.03614
G1 X126.935 Y94.705 E.0385
G1 X127.774 Y94.818 E.03225
G1 X128.866 Y95.03 E.04234
G1 X129.793 Y95.268 E.03643
G1 X130.714 Y95.56 E.03679
G1 X131.639 Y95.912 E.03768
G1 X132.544 Y96.318 E.0378
G1 X133.427 Y96.778 E.03788
G1 X134.274 Y97.283 E.03754
G1 X135.102 Y97.843 E.03809
G1 X135.894 Y98.447 E.03792
G1 X136.66 Y99.108 E.03854
G1 X137.377 Y99.803 E.038
G1 X138.09 Y100.582 E.04023
G1 X138.811 Y101.478 E.04378
G1 X139.433 Y102.363 E.0412
G1 X139.951 Y103.205 E.03763
G1 X140.169 Y103.658 E.01916
G1 X140.359 Y104.294 E.02527
G1 X140.43 Y104.934 E.02451
G1 X140.377 Y105.613 E.02591
G1 X140.216 Y106.217 E.02381
G1 X139.943 Y106.809 E.02485
G1 X139.426 Y107.647 E.03747
G1 X138.737 Y108.66 E.04667
G1 X138.224 Y109.554 E.03925
G1 X137.074 Y110.741 E.06293
G1 X136.364 Y111.188 E.03194
G1 X135.418 Y111.925 E.04566
G1 X134.672 Y112.458 E.03493
G1 X133.823 Y112.994 E.03821
G1 X132.958 Y113.474 E.03767
G1 X132.012 Y113.928 E.03996
G1 X130.965 Y114.351 E.04299
G1 X129.893 Y114.703 E.04298
G1 X128.936 Y114.954 E.03768
G1 X127.824 Y115.173 E.04315
G1 X126.72 Y115.318 E.04239
G1 X125.582 Y115.39 E.04344
G1 X124.573 Y115.391 E.0384
G1 X100.481 Y113.928 E.91906
G1 X99.914 Y113.836 E.02187
G1 X99.385 Y113.673 E.02108
G1 X98.663 Y113.307 E.03083
G1 X98.215 Y112.969 E.02137
G1 X97.807 Y112.56 E.02199
G1 X97.344 Y111.888 E.03107
G1 X96.991 Y111.017 E.0358
G1 X96.839 Y110.075 E.03632
G1 X96.832 Y107.215 E.1089
G1 X96.75 Y106.03 E.04523
G1 X96.715 Y105.073 E.03645
G1 X96.727 Y104.345 E.02775
G1 X96.827 Y102.823 E.05809
G1 X96.849 Y99.777 E.11598
G1 X96.912 Y99.323 E.01746
G1 X97.021 Y98.872 E.01765
G1 X97.449 Y97.926 E.03954
G1 X97.668 Y97.623 E.01423
M204 S1000
G1 X97.965 Y97.835 F10800
M204 S800
G1 F1200
G1 X98.353 Y97.398 E.02226
G1 X98.72 Y97.097 E.01808
G1 X99.111 Y96.854 E.01752
G1 X99.841 Y96.561 E.02995
G1 X100.602 Y96.427 E.02944
G1 X124.055 Y94.998 E.89469
G1 X124.985 Y94.968 E.03543
G1 X125.913 Y94.99 E.03536
G1 X126.901 Y95.069 E.03772
G1 X127.72 Y95.181 E.03148
G1 X128.791 Y95.389 E.04154
G1 X129.696 Y95.622 E.03561
G1 X130.598 Y95.908 E.03602
G1 X131.503 Y96.253 E.03688
G1 X132.39 Y96.65 E.03699
G1 X133.253 Y97.1 E.03706
G1 X134.081 Y97.595 E.03674
G1 X134.893 Y98.143 E.0373
G1 X135.659 Y98.728 E.0367
G1 X136.409 Y99.375 E.03772
G1 X137.11 Y100.054 E.03718
G1 X137.808 Y100.817 E.03936
G1 X138.514 Y101.694 E.04287
G1 X139.124 Y102.56 E.04033
G1 X139.633 Y103.389 E.03705
G1 X139.833 Y103.803 E.0175
G1 X140.003 Y104.381 E.02294
G1 X140.064 Y104.955 E.02197
G1 X140.013 Y105.565 E.02331
G1 X139.866 Y106.105 E.02132
G1 X139.625 Y106.626 E.02187
G1 X139.121 Y107.444 E.03659
G1 X138.426 Y108.466 E.04704
G1 X137.917 Y109.352 E.03891
G1 X136.86 Y110.443 E.05784
G1 X136.154 Y110.888 E.0318
G1 X135.196 Y111.634 E.04621
G1 X134.463 Y112.157 E.03429
G1 X133.632 Y112.682 E.03743
G1 X132.795 Y113.146 E.03645
G1 X131.859 Y113.595 E.03953
G1 X130.834 Y114.009 E.0421
G1 X129.784 Y114.354 E.04207
G1 X128.848 Y114.598 E.03682
G1 X127.759 Y114.813 E.04229
G1 X126.679 Y114.954 E.04148
G1 X125.564 Y115.024 E.04252
G1 X124.59 Y115.025 E.0371
G1 X100.53 Y113.565 E.91784
G1 X100.01 Y113.482 E.02005
G1 X99.508 Y113.327 E.01999
G1 X98.87 Y113.004 E.02722
G1 X98.446 Y112.685 E.02023
G1 X98.079 Y112.315 E.01984
G1 X97.658 Y111.699 E.02842
G1 X97.339 Y110.9 E.03273
G1 X97.205 Y110.06 E.03239
G1 X97.199 Y107.202 E.10883
G1 X97.116 Y106.008 E.04559
G1 X97.081 Y105.074 E.03557
G1 X97.092 Y104.364 E.02704
G1 X97.193 Y102.836 E.05833
G1 X97.214 Y99.815 E.11504
G1 X97.273 Y99.382 E.01663
G1 X97.373 Y98.976 E.01591
G1 X97.758 Y98.125 E.03559
G1 X97.93 Y97.884 E.01125
M204 S1000
G1 X98.228 Y98.097 F10800
M204 S800
G1 F1200
G1 X98.314 Y97.977 E.00566
G1 X98.612 Y97.658 E.0166
G1 X98.942 Y97.389 E.0162
G1 X99.29 Y97.173 E.0156
G1 X99.924 Y96.919 E.02601
G1 X100.635 Y96.792 E.02751
G1 X124.075 Y95.364 E.89418
G1 X124.992 Y95.334 E.03493
M73 P0 R82
G1 X125.899 Y95.356 E.03458
G1 X126.866 Y95.434 E.03693
G1 X127.665 Y95.543 E.03071
G1 X128.715 Y95.748 E.04073
G1 X129.6 Y95.975 E.03479
G1 X130.482 Y96.255 E.03524
G1 X131.368 Y96.593 E.03608
G1 X132.234 Y96.982 E.03618
G1 X133.079 Y97.423 E.03625
G1 X133.889 Y97.906 E.03594
G1 X134.683 Y98.444 E.03651
G1 X135.424 Y99.009 E.03548
G1 X136.166 Y99.649 E.03732
G1 X136.844 Y100.306 E.03595
G1 X137.527 Y101.051 E.03849
G1 X138.218 Y101.909 E.04197
G1 X138.815 Y102.757 E.03946
G1 X139.316 Y103.573 E.03646
G1 X139.496 Y103.947 E.01582
G1 X139.646 Y104.466 E.02058
G1 X139.697 Y104.974 E.01942
G1 X139.65 Y105.515 E.0207
G1 X139.518 Y105.992 E.01884
G1 X139.308 Y106.443 E.01894
G1 X138.816 Y107.242 E.03571
G1 X138.115 Y108.271 E.04742
G1 X137.611 Y109.15 E.03857
G1 X136.647 Y110.145 E.05276
G1 X135.943 Y110.588 E.03167
G1 X134.974 Y111.342 E.04675
G1 X134.255 Y111.855 E.03365
G1 X133.441 Y112.369 E.03664
G1 X132.632 Y112.818 E.03525
G1 X131.706 Y113.262 E.0391
G1 X130.702 Y113.666 E.04119
G1 X129.675 Y114.004 E.04117
G1 X128.761 Y114.242 E.03596
G1 X127.694 Y114.452 E.04143
G1 X126.637 Y114.59 E.04057
G1 X125.547 Y114.658 E.04161
G1 X124.595 Y114.659 E.03624
G1 X100.577 Y113.202 E.91624
G1 X100.105 Y113.128 E.0182
G1 X99.631 Y112.982 E.01887
G1 X99.077 Y112.701 E.02366
G1 X98.696 Y112.417 E.01808
G1 X98.352 Y112.069 E.01865
G1 X97.972 Y111.51 E.02574
G1 X97.697 Y110.822 E.02821
G1 X97.571 Y110.045 E.02997
G1 X97.565 Y107.199 E.10835
G1 X97.554 Y106.848 E.01337
G1 X97.482 Y105.989 E.03284
G1 X97.448 Y105.075 E.03481
G1 X97.458 Y104.384 E.02633
G1 X97.56 Y102.849 E.05857
G1 X97.579 Y99.852 E.11413
G1 X97.631 Y99.46 E.01507
G1 X97.725 Y99.08 E.01489
G1 X98.066 Y98.323 E.03161
G1 X98.193 Y98.146 E.00828
M204 S1000
G1 X98.491 Y98.358 F10800
M204 S800
G1 F1200
G1 X98.591 Y98.216 E.00661
G1 X98.854 Y97.933 E.01472
G1 X99.146 Y97.694 E.01434
G1 X99.469 Y97.494 E.01449
G1 X100.041 Y97.266 E.02343
G1 X100.667 Y97.157 E.02421
G1 X124.094 Y95.729 E.8937
G1 X124.988 Y95.701 E.03404
G1 X125.885 Y95.722 E.03418
G1 X126.832 Y95.799 E.03615
G1 X127.61 Y95.905 E.02994
G1 X128.64 Y96.106 E.03993
G1 X129.504 Y96.329 E.03398
G1 X130.366 Y96.603 E.03446
G1 X131.232 Y96.933 E.03529
G1 X132.079 Y97.314 E.03537
G1 X132.904 Y97.745 E.03544
G1 X133.697 Y98.218 E.03514
G1 X134.474 Y98.744 E.03572
G1 X135.189 Y99.29 E.03426
G1 X135.923 Y99.923 E.03691
G1 X136.578 Y100.557 E.03472
G1 X137.245 Y101.286 E.03762
M73 Q1 S83
G1 X137.922 Y102.125 E.04107
G1 X138.506 Y102.954 E.03858
G1 X138.999 Y103.756 E.03586
M73 P1 R82
G1 X139.158 Y104.09 E.0141
G1 X139.289 Y104.55 E.0182
G1 X139.331 Y104.99 E.01685
G1 X139.287 Y105.463 E.0181
G1 X139.17 Y105.877 E.01638
G1 X138.991 Y106.26 E.01608
G1 X138.511 Y107.039 E.03485
G1 X137.805 Y108.077 E.04779
G1 X137.305 Y108.948 E.03823
G1 X136.433 Y109.846 E.04767
G1 X135.732 Y110.287 E.03153
G1 X134.752 Y111.051 E.0473
G1 X134.046 Y111.554 E.033
G1 X133.259 Y112.051 E.03546
G1 X132.468 Y112.49 E.03443
