; generated by PrusaSlicer 2.4.0+win64 on 2022-02-15 at 10:01:36 UTC

; 

; external perimeters extrusion width = 0.45mm
; perimeters extrusion width = 0.45mm
; infill extrusion width = 0.45mm
; solid infill extrusion width = 0.45mm
; top infill extrusion width = 0.40mm
; first layer extrusion width = 0.42mm

M73 P0 R73
M73 Q0 S73
M201 X1000 Y1000 Z200 E5000 ; sets maximum accelerations, mm/sec^2
M203 X200 Y200 Z12 E120 ; sets maximum feedrates, mm/sec
M204 P1250 R1250 T1250 ; sets acceleration (P, T) and retract acceleration (R), mm/sec^2
M205 X8.00 Y8.00 Z0.40 E4.50 ; sets the jerk limits, mm/sec
M205 S0 T0 ; sets the minimum extruding and travel feed rate, mm/sec
M107
;TYPE:Custom
M862.3 P "MK3S" ; printer model check
M862.1 P0.4 ; nozzle diameter check
M115 U3.10.0 ; tell printer latest fw version
G90 ; use absolute coordinates
M83 ; extruder relative mode
M104 S215 ; set extruder temp
M140 S60 ; set bed temp
M190 S60 ; wait for bed temp
M109 S215 ; wait for extruder temp
G28 W ; home all without mesh bed level
G80 ; mesh bed leveling
G1 Z0.2 F720
G1 Y-3 F1000 ; go outside print area
G92 E0
G1 X60 E9 F1000 ; intro line
G1 X100 E12.5 F1000 ; intro line
G92 E0
M221 S95

; Don't change E values below. Excessive value can damage the printer.

G21 ; set units to millimeters
G90 ; use absolute coordinates
M83 ; use relative distances for extrusion
M900 K0.05 ; Filament gcode LA 1.5
M900 K30 ; Filament gcode LA 1.0
M107
;LAYER_CHANGE
;Z:0.3
;HEIGHT:0.3
;BEFORE_LAYER_CHANGE
G92 E0.0
;0.3


G1 E-.8 F2100
G1 Z.4 F720
;AFTER_LAYER_CHANGE
;0.3
G1 X95.361 Y94.287 F10800
G1 Z.3 F720
G1 E.8 F2100
M204 S800
;TYPE:Skirt/Brim
;WIDTH:0.42
G1 F1200
G1 X95.789 Y93.854 E.027
G1 X96.731 Y93.195 E.051
G1 X97.773 Y92.673 E.05168
G1 X98.825 Y92.322 E.04919
G1 X99.924 Y92.118 E.04956
G1 X125.03 Y90.609 E1.11561
G1 X127.747 Y90.781 E.12075
G1 X130.371 Y91.288 E.11855
G1 X132.911 Y92.118 E.11851
G1 X135.371 Y93.289 E.12084
G1 X137.618 Y94.732 E.11847
G1 X139.618 Y96.401 E.11551
G1 X141.339 Y98.231 E.11145
G1 X142.975 Y100.477 E.12324
G1 X143.839 Y102.058 E.07992
G1 X144.298 Y103.564 E.06983
G1 X144.435 Y105.145 E.07039
G1 X144.221 Y106.786 E.07338
G1 X143.946 Y107.672 E.04116
G1 X143.547 Y108.558 E.04311
G1 X141.653 Y111.604 E.15908
G1 X141.057 Y112.404 E.04423
G1 X139.793 Y113.678 E.07964
G1 X136.145 Y116.259 E.19818
G1 X134.613 Y117.113 E.07781
G1 X132.945 Y117.868 E.08119
G1 X131.127 Y118.502 E.08542
G1 X129.382 Y118.943 E.07983
G1 X127.509 Y119.248 E.08416
G1 X125.632 Y119.383 E.08347
G1 X123.739 Y119.35 E.08399
G1 X99.719 Y117.855 E1.06745
G1 X98.25 Y117.506 E.06701
G1 X96.868 Y116.884 E.06721
G1 X95.667 Y116.045 E.06497
G1 X94.61 Y114.957 E.06731
G1 X93.958 Y114.01 E.05096
G1 X93.498 Y113.094 E.04548
G1 X93.128 Y112.019 E.05045
G1 X92.904 Y110.844 E.05303
G1 X92.739 Y105.019 E.25847
G1 X92.86 Y99.668 E.23741
G1 X93.123 Y98.001 E.07486
G1 X93.714 Y96.439 E.07405
G1 X94.598 Y95.058 E.07274
G1 X95.318 Y94.33 E.04544
M204 S1000
;WIPE_START
G1 F8640
G1 X95.789 Y93.854 E-.15441
G1 X96.731 Y93.195 E-.26552
G1 X97.773 Y92.673 E-.26906
G1 X98.065 Y92.576 E-.07101
;WIPE_END
G1 E-.04 F2100
G1 Z.7 F720
G1 X97.123 Y96.172 F10800
G1 Z.3 F720
G1 E.8 F2100
M204 S800
G1 F1200
G1 X97.997 Y95.495 E.04906
G1 X98.766 Y95.1 E.03836
G1 X99.544 Y94.845 E.03629
G1 X100.459 Y94.7 E.0411
G1 X123.962 Y93.263 E1.0444
G1 X125.072 Y93.231 E.04925
G1 X126.314 Y93.274 E.05516
G1 X127.188 Y93.354 E.03891
G1 X128.064 Y93.477 E.03924
G1 X128.842 Y93.622 E.03511
G1 X129.636 Y93.806 E.03613
G1 X130.773 Y94.133 E.05246
G1 X131.831 Y94.511 E.04986
G1 X132.65 Y94.854 E.03935
G1 X133.449 Y95.235 E.03927
G1 X134.415 Y95.761 E.04878
G1 X135.364 Y96.352 E.04959
G1 X136.053 Y96.835 E.03733
G1 X136.716 Y97.344 E.03705
G1 X137.644 Y98.144 E.05436
G1 X138.524 Y99.011 E.0548
G1 X139.287 Y99.864 E.05078
G1 X140.001 Y100.769 E.05112
G1 X140.612 Y101.648 E.04745
G1 X141.247 Y102.705 E.05471
G1 X141.576 Y103.488 E.03766
G1 X141.741 Y104.156 E.03053
G1 X141.81 Y104.8 E.02873
G1 X141.772 Y105.64 E.03728
G1 X141.572 Y106.522 E.04016
G1 X141.245 Y107.304 E.03759
G1 X140.907 Y107.885 E.02981
G1 X140.477 Y108.555 E.0353
G1 X139.884 Y109.415 E.04633
G1 X139.249 Y110.468 E.05452
G1 X138.026 Y111.733 E.07809
G1 X137.179 Y112.291 E.04496
G1 X136.431 Y112.88 E.04223
G1 X135.683 Y113.43 E.0412
G1 X134.759 Y114.034 E.04895
G1 X133.789 Y114.588 E.04952
G1 X132.885 Y115.038 E.04481
G1 X131.967 Y115.435 E.04436
G1 X130.871 Y115.835 E.05178
G1 X129.87 Y116.133 E.04629
G1 X128.843 Y116.378 E.04685
G1 X127.77 Y116.569 E.04833
G1 X126.758 Y116.691 E.04523
G1 X125.906 Y116.75 E.03788
G1 X124.92 Y116.769 E.04376
G1 X124.104 Y116.745 E.03617
G1 X100.282 Y115.281 E1.05864
G1 X99.591 Y115.166 E.03106
G1 X98.916 Y114.961 E.03132
G1 X98.003 Y114.511 E.04513
G1 X97.072 Y113.78 E.0525
G1 X96.301 Y112.813 E.05487
G1 X95.916 Y112.08 E.03669
G1 X95.664 Y111.356 E.034
G1 X95.475 Y110.155 E.05393
G1 X95.464 Y107.13 E.13417
G1 X95.379 Y105.754 E.06119
G1 X95.361 Y104.904 E.0377
G1 X95.374 Y104.292 E.02714
G1 X95.464 Y102.825 E.06519
G1 X95.471 Y100.013 E.12474
G1 X95.507 Y99.474 E.02395
G1 X95.672 Y98.623 E.03846
G1 X95.982 Y97.773 E.04013
G1 X96.433 Y96.982 E.04039
G1 X97.084 Y96.218 E.04449
M204 S1000
G1 X97.354 Y96.449 F10800
M204 S800
G1 F1200
G1 X98.2 Y95.787 E.04768
G1 X98.915 Y95.424 E.03555
G1 X99.64 Y95.188 E.03383
G1 X100.489 Y95.054 E.03812
G1 X123.981 Y93.618 E1.04391
G1 X125.065 Y93.587 E.04812
G1 X126.297 Y93.629 E.05468
G1 X127.143 Y93.707 E.03768
G1 X128.003 Y93.827 E.03852
G1 X128.766 Y93.969 E.03443
G1 X129.542 Y94.149 E.03533
G1 X130.669 Y94.474 E.05201
G1 X131.698 Y94.841 E.04849
G1 X132.5 Y95.177 E.03858
G1 X133.292 Y95.554 E.03887
G1 X134.231 Y96.066 E.04745
G1 X135.164 Y96.646 E.04872
G1 X135.84 Y97.12 E.0366
G1 X136.495 Y97.623 E.03665
G1 X137.407 Y98.409 E.05342
G1 X138.27 Y99.26 E.05377
G1 X139.018 Y100.097 E.04979
G1 X139.712 Y100.977 E.04969
G1 X140.31 Y101.836 E.04643
G1 X140.936 Y102.877 E.05389
G1 X141.234 Y103.587 E.03415
G1 X141.389 Y104.207 E.02836
G1 X141.454 Y104.799 E.02641
G1 X141.421 Y105.577 E.03453
G1 X141.228 Y106.429 E.03873
G1 X140.931 Y107.135 E.034
G1 X140.605 Y107.697 E.02879
G1 X140.183 Y108.356 E.03473
G1 X139.585 Y109.223 E.04672
G1 X138.979 Y110.236 E.05236
G1 X137.813 Y111.448 E.07457
G1 X136.971 Y112.003 E.04474
G1 X136.218 Y112.596 E.0425
G1 X135.484 Y113.135 E.04041
G1 X134.578 Y113.727 E.04804
G1 X133.626 Y114.272 E.04861
G1 X132.74 Y114.714 E.04393
G1 X131.831 Y115.107 E.04391
G1 X130.764 Y115.496 E.05038
G1 X129.783 Y115.788 E.04539
G1 X128.765 Y116.031 E.0464
G1 X127.713 Y116.218 E.04742
G1 X126.729 Y116.337 E.04396
G1 X125.894 Y116.394 E.0371
G1 X124.926 Y116.413 E.04298
G1 X124.123 Y116.39 E.0356
G1 X100.331 Y114.929 E1.05728
G1 X99.661 Y114.817 E.03012
G1 X99.034 Y114.625 E.02911
G1 X98.178 Y114.201 E.04238
G1 X97.309 Y113.514 E.04911
G1 X96.591 Y112.606 E.05138
G1 X96.238 Y111.928 E.03387
G1 X96.005 Y111.255 E.03158
G1 X95.831 Y110.141 E.05005
G1 X95.819 Y107.119 E.13403
G1 X95.734 Y105.735 E.06148
G1 X95.717 Y104.908 E.03672
G1 X95.73 Y104.31 E.02651
G1 X95.82 Y102.836 E.06549
G1 X95.827 Y100.019 E.12494
G1 X95.861 Y99.509 E.02269
G1 X96.018 Y98.705 E.03632
G1 X96.31 Y97.91 E.03758
G1 X96.733 Y97.173 E.03766
G1 X97.315 Y96.495 E.03964
M204 S1000
G1 X97.584 Y96.727 F10800
M204 S800
G1 F1200
G1 X97.637 Y96.665 E.00365
G1 X98.403 Y96.08 E.04272
G1 X99.062 Y95.748 E.03274
G1 X99.735 Y95.53 E.03139
G1 X100.519 Y95.409 E.03516
G1 X124 Y93.973 E1.04343
G1 X125.058 Y93.942 E.04699
G1 X126.28 Y93.984 E.05421
G1 X127.098 Y94.059 E.03644
G1 X127.942 Y94.177 E.03779
G1 X128.69 Y94.317 E.03375
G1 X129.448 Y94.492 E.03453
G1 X130.565 Y94.814 E.05155
G1 X131.565 Y95.171 E.04711
G1 X132.359 Y95.504 E.03817
G1 X133.134 Y95.873 E.03809
G1 X134.048 Y96.37 E.04613
G1 X134.964 Y96.94 E.04785
G1 X135.632 Y97.409 E.03622
G1 X136.274 Y97.902 E.0359
G1 X137.17 Y98.675 E.05248
G1 X138.016 Y99.51 E.05273
G1 X138.749 Y100.33 E.0488
G1 X139.423 Y101.184 E.04826
G1 X140.008 Y102.024 E.0454
G1 X140.624 Y103.05 E.05306
G1 X140.893 Y103.687 E.03066
G1 X141.037 Y104.26 E.0262
G1 X141.098 Y104.8 E.0241
G1 X141.071 Y105.515 E.03173
G1 X140.885 Y106.334 E.03729
G1 X140.618 Y106.966 E.03042
G1 X140.304 Y107.508 E.02778
G1 X139.885 Y108.161 E.03442
G1 X139.285 Y109.031 E.04688
G1 X138.707 Y110.005 E.05022
G1 X137.601 Y111.162 E.071
G1 X136.763 Y111.714 E.04451
G1 X136.001 Y112.314 E.04303
G1 X135.286 Y112.84 E.03937
G1 X134.396 Y113.421 E.04712
G1 X133.463 Y113.956 E.0477
G1 X132.585 Y114.393 E.04349
G1 X131.695 Y114.778 E.04303
G1 X130.657 Y115.156 E.04899
G1 X129.696 Y115.443 E.0445
G1 X128.688 Y115.683 E.04595
G1 X127.656 Y115.867 E.04651
G1 X126.7 Y115.982 E.04269
G1 X125.883 Y116.039 E.03633
G1 X124.932 Y116.058 E.0422
G1 X124.142 Y116.035 E.03503
G1 X100.38 Y114.577 E1.05596
G1 X99.754 Y114.474 E.02813
G1 X99.152 Y114.29 E.02791
G1 X98.354 Y113.891 E.03958
G1 X97.548 Y113.249 E.04571
G1 X96.881 Y112.4 E.04788
G1 X96.56 Y111.777 E.03107
G1 X96.347 Y111.155 E.02918
G1 X96.186 Y110.126 E.0462
G1 X96.175 Y107.107 E.1339
G1 X96.089 Y105.717 E.06178
G1 X96.073 Y104.911 E.03574
G1 X96.085 Y104.328 E.02587
G1 X96.175 Y102.848 E.0658
G1 X96.182 Y100.026 E.12515
G1 X96.215 Y99.544 E.02142
G1 X96.364 Y98.788 E.03417
G1 X96.638 Y98.048 E.03502
G1 X97.032 Y97.366 E.03492
G1 X97.544 Y96.772 E.03478
M204 S1000
G1 X97.813 Y97.005 F10800
M204 S800
G1 F1200
G1 X97.893 Y96.912 E.00546
G1 X98.604 Y96.373 E.03954
G1 X99.208 Y96.072 E.02994
G1 X99.83 Y95.874 E.02897
G1 X100.548 Y95.763 E.03224
G1 X124.018 Y94.328 E1.04295
G1 X125.052 Y94.298 E.04586
G1 X126.262 Y94.339 E.05373
G1 X127.053 Y94.412 E.0352
G1 X127.881 Y94.528 E.03708
G1 X128.613 Y94.664 E.03307
G1 X129.354 Y94.835 E.03372
G1 X130.461 Y95.154 E.05109
G1 X131.432 Y95.501 E.04574
G1 X132.21 Y95.826 E.03739
G1 X132.977 Y96.192 E.03769
G1 X133.864 Y96.675 E.04481
G1 X134.764 Y97.235 E.04698
G1 X135.425 Y97.698 E.03583
G1 X136.054 Y98.181 E.03515
G1 X136.933 Y98.94 E.05153
G1 X137.763 Y99.759 E.0517
G1 X138.474 Y100.555 E.04734
G1 X139.135 Y101.392 E.04732
G1 X139.707 Y102.213 E.04436
G1 X140.313 Y103.222 E.05223
G1 X140.552 Y103.787 E.02721
G1 X140.685 Y104.314 E.02407
G1 X140.742 Y104.802 E.02181
G1 X140.72 Y105.453 E.02889
G1 X140.542 Y106.24 E.03581
G1 X140.305 Y106.797 E.02685
G1 X140.002 Y107.32 E.02678
G1 X139.587 Y107.967 E.0341
G1 X138.985 Y108.84 E.04707
G1 X138.435 Y109.775 E.0481
G1 X137.388 Y110.876 E.0674
G1 X136.554 Y111.425 E.04427
G1 X135.783 Y112.033 E.04357
G1 X135.087 Y112.545 E.03833
G1 X134.215 Y113.115 E.04621
G1 X133.299 Y113.64 E.0468
G1 X132.44 Y114.069 E.04261
G1 X131.559 Y114.45 E.04258
G1 X130.55 Y114.817 E.0476
G1 X129.608 Y115.098 E.0436
G1 X128.611 Y115.336 E.0455
G1 X127.598 Y115.516 E.0456
G1 X126.671 Y115.628 E.04144
G1 X125.871 Y115.683 E.03555
G1 X124.938 Y115.702 E.04143
G1 X124.161 Y115.679 E.03445
G1 X100.428 Y114.224 E1.05467
G1 X99.846 Y114.13 E.02613
G1 X99.271 Y113.954 E.02669
G1 X98.531 Y113.582 E.03674
G1 X97.787 Y112.985 E.04229
G1 X97.173 Y112.196 E.04438
G1 X96.883 Y111.628 E.02827
G1 X96.689 Y111.055 E.02682
G1 X96.542 Y110.111 E.04239
G1 X96.531 Y107.095 E.13376
G1 X96.444 Y105.699 E.06207
G1 X96.428 Y104.915 E.03477
G1 X96.44 Y104.346 E.02523
G1 X96.531 Y102.859 E.0661
G1 X96.538 Y100.033 E.12535
G1 X96.569 Y99.579 E.02016
G1 X96.702 Y98.898 E.03077
G1 X96.966 Y98.186 E.03369
G1 X97.331 Y97.56 E.03214
G1 X97.773 Y97.051 E.02992
M204 S1000
G1 X98.04 Y97.284 F10800
M204 S800
G1 F1200
G1 X98.148 Y97.161 E.00728
G1 X98.803 Y96.668 E.03636
G1 X99.352 Y96.397 E.02714
G1 X99.923 Y96.217 E.02657
G1 X100.578 Y96.118 E.02936
G1 X124.037 Y94.684 E1.04248
G1 X125.045 Y94.653 E.04473
M73 P0 R72
G1 X126.245 Y94.695 E.05325
G1 X127.008 Y94.765 E.03397
G1 X127.82 Y94.878 E.03636
G1 X128.537 Y95.012 E.03238
G1 X129.261 Y95.178 E.03292
G1 X130.357 Y95.494 E.05062
G1 X131.299 Y95.831 E.04437
G1 X132.068 Y96.153 E.03699
G1 X132.819 Y96.511 E.03691
G1 X133.681 Y96.98 E.04349
G1 X134.564 Y97.529 E.04611
G1 X135.212 Y97.982 E.03509
G1 X135.833 Y98.459 E.03474
G1 X136.696 Y99.205 E.05059
G1 X137.509 Y100.008 E.05067
G1 X138.198 Y100.779 E.04589
G1 X138.846 Y101.6 E.04638
G1 X139.405 Y102.402 E.04335
G1 X139.991 Y103.372 E.05027
G1 X140.219 Y103.913 E.02604
G1 X140.333 Y104.368 E.02081
G1 X140.387 Y104.804 E.01948
G1 X140.365 Y105.424 E.02751
G1 X140.208 Y106.116 E.03148
G1 X139.982 Y106.648 E.02564
G1 X139.697 Y107.137 E.02511
G1 X139.293 Y107.767 E.03322
G1 X138.685 Y108.649 E.04751
G1 X138.139 Y109.577 E.04775
G1 X137.146 Y110.615 E.06373
G1 X136.347 Y111.136 E.04228
G1 X135.565 Y111.752 E.04416
G1 X134.88 Y112.256 E.03771
G1 X134.025 Y112.815 E.04532
G1 X133.136 Y113.324 E.04543
G1 X132.286 Y113.749 E.04216
G1 X131.423 Y114.121 E.04169
G1 X130.434 Y114.481 E.04668
G1 X129.512 Y114.756 E.04268
G1 X128.543 Y114.987 E.04415
G1 X127.551 Y115.163 E.04472
G1 X126.642 Y115.273 E.04061
G1 X125.86 Y115.328 E.03477
G1 X124.943 Y115.347 E.04064
G1 X124.18 Y115.324 E.03387
G1 X100.476 Y113.872 E1.05337
G1 X99.916 Y113.781 E.02518
G1 X99.391 Y113.619 E.02436
G1 X98.708 Y113.274 E.03391
G1 X98.027 Y112.723 E.03886
G1 X97.465 Y111.993 E.04087
G1 X97.207 Y111.48 E.02547
G1 X97.031 Y110.957 E.02449
G1 X96.897 Y110.097 E.0386
G1 X96.886 Y107.084 E.13363
G1 X96.799 Y105.68 E.06237
G1 X96.784 Y104.919 E.03379
G1 X96.795 Y104.364 E.02459
G1 X96.886 Y102.87 E.0664
G1 X96.894 Y100.04 E.12555
G1 X96.923 Y99.614 E.0189
G1 X97.041 Y99.008 E.02739
G1 X97.294 Y98.325 E.03234
G1 X97.629 Y97.755 E.02931
G1 X98.001 Y97.329 E.02507
M204 S1000
G1 X98.266 Y97.561 F10800
M204 S800
G1 F1200
G1 X98.377 Y97.434 E.00748
G1 X99.003 Y96.963 E.03475
G1 X99.495 Y96.723 E.02427
G1 X100.016 Y96.56 E.0242
G1 X100.607 Y96.472 E.02651
G1 X124.056 Y95.039 E1.04203
G1 X125.039 Y95.009 E.0436
M73 P1 R72
M73 Q1 S73
G1 X126.228 Y95.05 E.05276
G1 X126.963 Y95.118 E.03274
G1 X127.759 Y95.229 E.03564
G1 X128.461 Y95.359 E.03171
G1 X129.167 Y95.521 E.0321
G1 X130.254 Y95.834 E.05016
G1 X131.166 Y96.16 E.04299
G1 X131.927 Y96.479 E.03658
G1 X132.662 Y96.83 E.03612
G1 X133.498 Y97.284 E.04219
G1 X134.364 Y97.823 E.04524
G1 X134.998 Y98.267 E.03434
G1 X135.612 Y98.738 E.03434
G1 X136.45 Y99.462 E.04912
G1 X137.255 Y100.257 E.05015
G1 X137.929 Y101.012 E.04491
G1 X138.557 Y101.808 E.04497
G1 X139.104 Y102.591 E.04235
G1 X139.668 Y103.522 E.04829
G1 X139.886 Y104.038 E.02484
G1 X139.982 Y104.423 E.01761
G1 X140.031 Y104.806 E.01712
G1 X140.011 Y105.395 E.02611
G1 X139.874 Y105.992 E.02718
G1 X139.669 Y106.479 E.02343
G1 X139.396 Y106.948 E.0241
G1 X138.999 Y107.568 E.03265
G1 X138.384 Y108.458 E.04795
G1 X137.843 Y109.379 E.04738
G1 X136.904 Y110.353 E.06002
G1 X136.141 Y110.846 E.04032
G1 X135.347 Y111.471 E.04479
G1 X134.673 Y111.966 E.0371
G1 X133.835 Y112.514 E.04444
G1 X132.972 Y113.008 E.04407
G1 X132.14 Y113.424 E.04128
G1 X131.286 Y113.792 E.04124
G1 X130.317 Y114.145 E.04575
G1 X129.415 Y114.414 E.04176
G1 X128.466 Y114.64 E.04326
G1 X127.503 Y114.811 E.04338
G1 X126.612 Y114.919 E.03979
G1 X125.848 Y114.972 E.03399
G1 X124.949 Y114.991 E.03986
G1 X124.199 Y114.969 E.0333
G1 X100.523 Y113.519 E1.05211
G1 X100.008 Y113.438 E.02311
G1 X99.511 Y113.284 E.0231
G1 X98.887 Y112.966 E.03103
G1 X98.269 Y112.461 E.03541
G1 X97.759 Y111.791 E.03734
G1 X97.531 Y111.333 E.02269
G1 X97.373 Y110.859 E.0222
G1 X97.253 Y110.082 E.03485
G1 X97.242 Y107.072 E.1335
G1 X97.154 Y105.662 E.06266
G1 X97.139 Y104.922 E.03282
G1 X97.15 Y104.382 E.02395
G1 X97.242 Y102.881 E.0667
G1 X97.249 Y100.047 E.12575
G1 X97.277 Y99.65 E.01764
G1 X97.379 Y99.118 E.02401
G1 X97.622 Y98.464 E.03096
G1 X97.926 Y97.95 E.02647
G1 X98.227 Y97.606 E.02027
M204 S1000
G1 X98.492 Y97.837 F10800
M204 S800
G1 F1200
G1 X98.606 Y97.707 E.00767
G1 X99.202 Y97.258 E.03311
G1 X99.636 Y97.05 E.02134
G1 X100.107 Y96.904 E.02187
G1 X100.636 Y96.827 E.02371
G1 X124.075 Y95.394 E1.04158
G1 X125.033 Y95.365 E.04247
G1 X126.21 Y95.405 E.05228
G1 X126.918 Y95.47 E.03151
G1 X127.698 Y95.579 E.03492
G1 X128.386 Y95.707 E.03103
G1 X129.073 Y95.864 E.03129
G1 X130.15 Y96.174 E.04969
G1 X131.033 Y96.49 E.04162
